build/Karasa-Jaga/scalable/devices/pda-symbolic.svg

<svg height="16" width="16" xmlns="http://www.w3.org/2000/svg"><g fill="#bebebe" transform="translate(-161.0002 -567)"><path d="m4.1835938 0c-1.7978301.00001-3.1523438 1.33801-3.1523438 3v10c0 1.662 1.3545036 3 3.1523438 3h7.5703122c1.79783-.00001 3.246094-1.33801 3.246094-3v-6.5898438l-1 1.4550782v6.1347656h-12v-11c0-1.108.892-2 2-2h8c.140021 0 .276446.015842.408203.042969l.597656-.792969c-.38069-.14431-.813733-.25-1.251953-.25z" transform="translate(161.0002 567)"/><path d="m175.04053 568.03103s-2.51922 3.50643-4.04033 5.96897l-1.40567 1.1673.0373 1.57392-.76313 1.24524.69536-.001.74028-.58334 1.67496-.4626.5949-1.48097 4.18505-6.36462z"/></g></svg>

<?xml version="1.0" encoding="UTF-8" standalone="no"?>
<svg
   xmlns:dc="http://purl.org/dc/elements/1.1/"
   xmlns:cc="http://creativecommons.org/ns#"
   xmlns:rdf="http://www.w3.org/1999/02/22-rdf-syntax-ns#"
   xmlns:svg="http://www.w3.org/2000/svg"
   xmlns="http://www.w3.org/2000/svg"
   xmlns:sodipodi="http://sodipodi.sourceforge.net/DTD/sodipodi-0.dtd"
   xmlns:inkscape="http://www.inkscape.org/namespaces/inkscape"
   height="16"
   width="16"
   version="1.1"
   id="svg8"
   sodipodi:docname="pda-symbolic.svg"
   inkscape:version="0.92.4 (unknown)">
  <metadata
     id="metadata14">
    <rdf:RDF>
      <cc:Work
         rdf:about="">
        <dc:format>image/svg+xml</dc:format>
        <dc:type
           rdf:resource="http://purl.org/dc/dcmitype/StillImage" />
        <dc:title></dc:title>
      </cc:Work>
    </rdf:RDF>
  </metadata>
  <defs
     id="defs12" />
  <sodipodi:namedview
     pagecolor="#ffffff"
     bordercolor="#666666"
     borderopacity="1"
     objecttolerance="10"
     gridtolerance="10"
     guidetolerance="10"
     inkscape:pageopacity="0"
     inkscape:pageshadow="2"
     inkscape:window-width="1366"
     inkscape:window-height="706"
     id="namedview10"
     showgrid="true"
     inkscape:zoom="14.75"
     inkscape:cx="3.3681265"
     inkscape:cy="2.1496759"
     inkscape:window-x="0"
     inkscape:window-y="0"
     inkscape:window-maximized="1"
     inkscape:current-layer="svg8">
    <inkscape:grid
       type="xygrid"
       id="grid821" />
  </sodipodi:namedview>
  <g
     fill="#bebebe"
     transform="translate(-161.0002 -567)"
     id="g6">
    <path
       d="M 4.1835938,0 C 2.3857637,10e-6 1.03125,1.33801 1.03125,3 v 10 c 0,1.662 1.3545036,3 3.1523438,3 H 11.753906 C 13.551736,15.99999 15,14.66199 15,13 V 6.4101562 L 14,7.8652344 V 14 H 2 V 3 C 2,1.892 2.892,1 4,1 h 8 c 0.140021,0 0.276446,0.015842 0.408203,0.042969 L 13.005859,0.25 C 12.625169,0.10569 12.192126,0 11.753906,0 Z"
       transform="translate(161.0002,567)"
       id="path2"
       inkscape:connector-curvature="0"
       sodipodi:nodetypes="cssscsccccsssccsc" />
    <path
       d="m175.04053 568.03103s-2.51922 3.50643-4.04033 5.96897l-1.40567 1.1673.0373 1.57392-.76313 1.24524.69536-.001.74028-.58334 1.67496-.4626.5949-1.48097 4.18505-6.36462z"
       id="path4" />
  </g>
</svg>
